svg/l/PG.svg

<svg width="32" height="24" viewBox="0 0 32 24" fill="none" xmlns="http://www.w3.org/2000/svg">
<g clip-path="url(#clip0_270_67470)">
<rect width="32" height="24" fill="white"/>
<rect width="32" height="24" rx="2" fill="#E11C1B"/>
<path fill-rule="evenodd" clip-rule="evenodd" d="M0 0L32 24H0V0Z" fill="#1D1D1D"/>
<path fill-rule="evenodd" clip-rule="evenodd" d="M7.08337 18.2685H8.41519L9.04858 16.7752L9.79306 18.2584L11.1576 18.333L9.99145 19.6023L10.5902 21.1314L9.10794 20.2802L7.73916 21.139L8.25549 19.6543L7.08337 18.2685Z" fill="#EEEEF6"/>
<path fill-rule="evenodd" clip-rule="evenodd" d="M3.08337 14.2685H4.41519L5.04858 12.7752L5.79306 14.2584L7.15758 14.333L5.99145 15.6023L6.59021 17.1314L5.10794 16.2802L3.73916 17.139L4.25549 15.6543L3.08337 14.2685Z" fill="#EEEEF6"/>
<path fill-rule="evenodd" clip-rule="evenodd" d="M7.08337 12.2685H8.41519L9.04858 10.7752L9.79306 12.2584L11.1576 12.333L9.99145 13.6023L10.5902 15.1314L9.10794 14.2802L7.73916 15.139L8.25549 13.6543L7.08337 12.2685Z" fill="#EEEEF6"/>
<path fill-rule="evenodd" clip-rule="evenodd" d="M9.71118 16.5642L10.6267 16.5338L10.9571 15.5896L11.3281 16.5287L12.1705 16.6097L11.412 17.1461L12.0238 18.0958L10.9623 17.6988L10.0423 18.1086L10.5282 17.1722L9.71118 16.5642Z" fill="#EEEEF6"/>
<path fill-rule="evenodd" clip-rule="evenodd" d="M11.7112 14.5642L12.6267 14.5338L12.9571 13.5896L13.3281 14.5287L14.1705 14.6097L13.412 15.1461L14.0238 16.0958L12.9623 15.6988L12.0423 16.1086L12.5282 15.1722L11.7112 14.5642Z" fill="#EEEEF6"/>
<path fill-rule="evenodd" clip-rule="evenodd" d="M21.0839 2C21.0839 2 17.9951 2.6162 18.862 6.90985H18.4213C18.4213 6.90985 18.4574 6.6858 18.0337 6.55443C17.61 6.42306 17.6949 6.47238 17.4763 6.55443C17.2576 6.63648 15.9275 6.55443 15.9275 6.55443V6.71879L16.8688 7.12531C16.8688 7.12531 16.8456 7.4638 17.2391 7.65137C17.6326 7.83894 17.9183 7.92933 17.9183 7.92933C17.9183 7.92933 17.9766 8.30286 17.6078 8.30286C17.2391 8.30286 15.756 7.82211 15.2285 9.00323C14.701 10.1844 14 11.051 14 11.051H14.7909L14.5787 11.3147H15.4693L15.2285 11.4514C15.2285 11.4514 16.3303 11.4391 16.4162 11.3147C16.5021 11.1903 16.4162 11.6519 16.4162 11.6519C16.4162 11.6519 17.4835 11.1646 17.5419 11.051L18.0401 11.3927L18.182 10.8144L18.7165 11.051L18.862 10.5C18.862 10.5 20.3741 13.0288 21.5209 12.8836V12.4639L22.5675 12.8836L22.7004 12.697C22.7004 12.697 23.9647 13.2125 24.3538 13.2603L24.0762 12.697H24.3538L24.0762 11.6519H24.3538L23.7986 10.8144L23.9541 10.5876L23.8512 10.2896C23.8512 10.2896 25.8867 10.938 25.7949 11.9697C25.7031 13.0013 24.7965 13.4176 24.7965 13.4176C24.7965 13.4176 23.9272 13.6839 23.142 13.6266C23.142 13.6266 23.7653 14.3629 25.0841 14.1134C26.403 13.8639 26.84 12.5852 26.84 12.5852C26.84 12.5852 27.4447 13.8412 26.9469 14.5016C26.4491 15.162 24.2326 15.6257 24.2326 15.6257C24.2326 15.6257 25.0345 16.0959 25.7949 15.9754C26.5552 15.8549 27.7377 15.1932 27.9669 14.1134C28.1961 13.0336 27.1761 11.0412 26.714 10.8144L26.5314 10.1231L26.9469 10.2896L26.0945 8.20516L26.5078 8.29571L25.3019 6.79557L25.6339 6.69328L23.9678 5.49566L24.4664 5.36395C24.4664 5.36395 23.2349 4.73985 21.8301 5.49566L21.8433 5.23454L21.4742 5.29695L21.4961 5.00973L21.863 4.45382L21.3121 4.24159C21.3121 4.24159 21.7574 3.57267 21.6906 3.58186C21.6906 3.58186 21.1943 3.72428 21.2225 3.66459C21.2225 3.66459 21.4729 3.01991 21.407 3.03717C21.407 3.03717 20.8315 3.2329 20.9166 3.13495L21.1378 2.7411L21.0839 2Z" fill="#FBCD17"/>
</g>
<defs>
<clipPath id="clip0_270_67470">
<rect width="32" height="24" fill="white"/>
</clipPath>
</defs>
</svg>

<svg width="32" height="24" fill="none" xmlns="http://www.w3.org/2000/svg">
  <mask id="a" maskUnits="userSpaceOnUse" x="0" y="0" width="32" height="24">
    <path fill="#fff" d="M0 0h32v24H0z"/>
  </mask>
  <g mask="url(#a)">
    <rect width="32" height="24" rx="2" fill="#E11C1B"/>
    <path fill-rule="evenodd" clip-rule="evenodd" d="M0 0l32 24H0V0z" fill="#1D1D1D"/>
    <path fill-rule="evenodd" clip-rule="evenodd" d="M7.083 18.268h1.332l.634-1.493.744 1.483 1.365.075-1.167 1.27.6 1.528-1.483-.85-1.369.858.516-1.485-1.172-1.386zm-4-4h1.332l.634-1.493.744 1.483 1.365.075-1.167 1.27.6 1.528-1.483-.85-1.369.858.516-1.485-1.172-1.386zm4-2h1.332l.634-1.493.744 1.483 1.365.075-1.167 1.27.6 1.528-1.483-.85-1.369.858.516-1.485-1.172-1.386z" fill="#EEEEF6"/>
    <path fill-rule="evenodd" clip-rule="evenodd" d="M9.711 16.564l.916-.03.33-.944.371.939.843.08-.759.537.612.95-1.062-.397-.92.41.486-.937-.817-.608zm2-2l.916-.03.33-.944.371.939.843.08-.759.537.612.95-1.062-.397-.92.41.486-.937-.817-.608z" fill="#EEEEF6"/>
    <path fill-rule="evenodd" clip-rule="evenodd" d="M21.084 2s-3.089.616-2.222 4.91h-.44s.035-.224-.388-.356c-.424-.13-.34-.082-.558 0-.218.082-1.548 0-1.548 0v.165l.94.406s-.022.339.371.526c.394.188.68.278.68.278s.058.374-.311.374-1.852-.48-2.38.7C14.702 10.184 14 11.051 14 11.051h.79l-.211.264h.89l-.24.136s1.101-.012 1.187-.136c.086-.125 0 .337 0 .337s1.067-.487 1.126-.601l.498.342.142-.579.535.237.145-.551s1.512 2.529 2.659 2.384v-.42l1.046.42.133-.187s1.265.516 1.654.563l-.278-.563h.278l-.278-1.045h.278l-.555-.838.155-.226-.103-.298s2.036.648 1.944 1.68c-.092 1.031-.998 1.448-.998 1.448s-.87.266-1.655.209c0 0 .623.736 1.942.486s1.756-1.528 1.756-1.528.605 1.256.107 1.917c-.498.66-2.714 1.124-2.714 1.124s.802.47 1.562.35c.76-.121 1.943-.783 2.172-1.863.23-1.08-.79-3.072-1.253-3.299l-.183-.69.416.166-.852-2.085.413.09-1.206-1.5.332-.102-1.666-1.197.498-.132s-1.231-.624-2.636.132l.013-.261-.369.062.022-.287.367-.556-.55-.212s.444-.67.378-.66c0 0-.497.142-.468.083 0 0 .25-.645.184-.628 0 0-.576.196-.49.098l.22-.394L21.085 2z" fill="#FBCD17"/>
  </g>
</svg>
